icons/calendar-chevron-right.svg

<svg xmlns="http://www.w3.org/2000/svg" width="24" height="24" viewBox="0 0 24 24">
  <path d="M22,10 L22,20 C22,21.6568542 20.6568542,23 19,23 L5,23 C3.34314575,23 2,21.6568542 2,20 L2,10 L22,10 Z M11.1128994,12.2097046 C10.7206082,11.9046797 10.1533772,11.9324093 9.79289322,12.2928932 L9.79289322,12.2928932 L9.70970461,12.3871006 C9.40467972,12.7793918 9.43240926,13.3466228 9.79289322,13.7071068 L9.79289322,13.7071068 L12.085,16 L9.79289322,18.2928932 L9.70970461,18.3871006 C9.40467972,18.7793918 9.43240926,19.3466228 9.79289322,19.7071068 C10.1834175,20.0976311 10.8165825,20.0976311 11.2071068,19.7071068 L11.2071068,19.7071068 L14.2071068,16.7071068 L14.2902954,16.6128994 C14.5953203,16.2206082 14.5675907,15.6533772 14.2071068,15.2928932 L14.2071068,15.2928932 L11.2071068,12.2928932 Z M7,3 L7,4 L7.00672773,4.11662113 C7.06449284,4.61395981 7.48716416,5 8,5 C8.51283584,5 8.93550716,4.61395981 8.99327227,4.11662113 L9,4 L9,3 L15,3 L15,4 L15.0067277,4.11662113 C15.0644928,4.61395981 15.4871642,5 16,5 C16.5128358,5 16.9355072,4.61395981 16.9932723,4.11662113 L17,4 L17,3 L19,3 C20.6568542,3 22,4.34314575 22,6 L22,8 L2,8 L2,6 C2,4.34314575 3.34314575,3 5,3 L7,3 Z M16,1 C16.5128358,1 16.9355072,1.38604019 16.9932723,1.88337887 L17,2 L17,3 L15,3 L15,2 C15,1.44771525 15.4477153,1 16,1 Z M8,1 C8.51283584,1 8.93550716,1.38604019 8.99327227,1.88337887 L9,2 L9,3 L7,3 L7,2 C7,1.44771525 7.44771525,1 8,1 Z"/>
</svg>

<svg xmlns="http://www.w3.org/2000/svg" viewBox="0 0 24 24">
  <path d="M22 10v10a3 3 0 0 1-3 3H5a3 3 0 0 1-3-3V10h20zm-10.89 2.21a1 1 0 0 0-1.32.08l-.08.1a1 1 0 0 0 .08 1.32L12.1 16l-2.3 2.3-.08.09a1 1 0 0 0 1.5 1.32l3-3 .08-.1a1 1 0 0 0-.08-1.32l-3-3zM7 3v1.12a1 1 0 0 0 2 0V3h6v1.12a1 1 0 0 0 2 0V3h2a3 3 0 0 1 3 3v2H2V6a3 3 0 0 1 3-3h2zm9-2a1 1 0 0 1 1 .88V3h-2V2a1 1 0 0 1 1-1zM8 1a1 1 0 0 1 1 .88V3H7V2a1 1 0 0 1 1-1z"/>
</svg>
